X: 179
T: Hell On the Wabash
B: canberra pickers and fiddlers
B: old time tunes update
B: tunes
M:4/4
L:1/8
Q: 1/4=100
K:G
V:1 
z2|g2 dB GBGB|D2 G2 G2 B2|cBAG F2 A2|BAGF G3 z|g2 dB GBGB|
D2 G2 G2 B2|cBAGFGAF|G3 G G2::Bc|d2 d2 dBdB|e2 e2 e2 eg|f2 d2 f2 d2|
BAGF G2 Bc|d2 d2 dBdB|e2 e2 e2 eg|f2 d2 f2 d2|BAGF G2:|
% abcbook-tune_id 67a7d9ec950612b0464afb0e
% abcbook-tune_composer_id 
% abcbook-link-0 https://www.youtube.com/watch?v=tsGhWv64btE
% abcbook-link-title-0 Hell on the Wabash - Piccolo and Field Drum
% abcbook-link-1 https://www.youtube.com/watch?v=EP4zRERy2tU
% abcbook-link-title-1 Anonymous: Hell on the Wabash - Field Music of the US Army/Traditional Fife and Drum Duet
% abcbook-boost 0
% abcbook-difficulty 0
% abcbook-tags old time tunes
% abcbook-tablature 
% abcbook-transpose 
% abcbook-tuning GDAD
% abcbook-lastupdated 1739165507423
% abcbook-src-url 
% abcbook-soundfonts 
% abcbook-repeats 1
% Titles One title
% Transcriptions Only 1 transcription
% Mode major
% Key G
% Time_signature 4/4
% Text Has source text
% Has_accompaniment_chords No chords

